X:1
T:Title
%%score { ( 1 3 ) | ( 2 4 ) }
L:1/8
Q:1/4=100
M:4/4
K:Ab
V:1 treble nm="Grand Piano"
V:3 treble 
V:2 bass 
V:4 bass 
V:1
 [Ec]2 [Ec]>[DB] [CA]2 [CE]2 | [DF][CE] [EB]>[EA] [DA]2 [DG]2 | %2
w: Fred~A.~Fillmore * * * *||
 [Gd]2 [B,EG]2 [EGc][DGB][B,EG][G,E] | [A,EA]>[B,EG] [A,EA][Ec] [EB]4 | [Ge]2 [A=d]2 [B_d]2 [Ac]2 | %5
w: |||
 [Fc][FB][F=A][FB] [Fd]2 [DF]2 | EF[EG][EA] [FB][Fd][Fc][FB] | [EA]2 [DG]2 [CA]4 | %8
w: |||
 [Fd]2 [Fd]>[Fd] [Fd]3 [Fd] | [Ec]2 [Ec]2 [Ec]4 | [EB]2 G>E B,2 [B,EG]2 | [A,=DF]4 E2 z2 | %12
w: ||||
 c2 c>c c3 [Ac] | [Ad]2 [Ad]2 [A=d]4 | [Ae]2 c>A E2 [EAc]2 |[M:9/8] .[DB]6 z3 |] %16
w: ||||
V:2
 [A,,A,]2 [A,,A,]>[A,,E,] [A,,E,]2 [A,,A,]2 | [A,,A,][A,,A,] [C,A,]>[C,E,] [B,,E,]2 [B,,E,]2 | %2
 [E,B,]2 E,2 E,E,E,D, | C,>D, C,[A,,A,] [E,G,]4 | [E,B,]2 [F,B,]2 [G,E]2 [A,E]2 | %5
 [D,D][D,D][D,C][D,B,] [B,,B,]2 [B,,A,]2 | [E,G,][E,A,E][D,B,][C,A,] [D,A,][B,,A,][C,=A,][D,B,] | %7
 [E,C]2 [E,B,]2 [A,,A,]4 | [D,A,]2 [D,A,]>[D,A,] [D,A,]3 [D,A,] | [A,,A,]2 [A,,A,]2 [A,,A,]4 | %10
 [B,,G,]2 G,>E, B,,2 B,,2 | B,,4 [E,G,]2 z2 | [A,EA]2 [A,EA]>[A,EA] [A,EA]3[K:bass] [_G,E] | %13
 [F,D]2 [F,D]2 [=E,_C]4 | [E,C]2 C>A, E,2 E,2 |[M:9/8] z2 E- E A,,2- A,, z z |] %16
V:3
 x8 | x8 | x8 | x8 | x8 | x8 | x8 | x8 | x8 | x8 | x8 | x8 | x8 | x8 | x8 | %15
[M:9/8] .G3 z [CEA]2- [CEA] z z |] %16
V:4
 x8 | x8 | x8 | x8 | x8 | x8 | x8 | x8 | x8 | x8 | x8 | x8 | x7[K:bass] x | x8 | x8 | %15
[M:9/8] .E,6 z3 |] %16

